assets/images/jen.svg

<?xml version="1.0" encoding="UTF-8"?>
<svg preserveAspectRatio="none" width="112px" height="136px" viewBox="0 0 112 136" version="1.1" xmlns="http://www.w3.org/2000/svg" xmlns:xlink="http://www.w3.org/1999/xlink">
    <!-- Generator: Sketch 43.1 (39012) - http://www.bohemiancoding.com/sketch -->
    <title>Page 1</title>
    <desc>Created with Sketch.</desc>
    <defs></defs>
    <g id="Page-1" stroke="none" stroke-width="1" fill="none" fill-rule="evenodd">
        <g id="About" transform="translate(-362.000000, -549.000000)" stroke="#000000">
            <g id="Page-1" transform="translate(363.000000, 550.000000)">
                <path vector-effect="non-scaling-stroke" d="M27.274191,40.0986067 C28.7295281,28.7251971 34.9544157,18.2074733 43.7148652,11.1514162 C52.4759326,4.09535905 63.6248652,0.444178095 74.7348652,0.322301905 C80.3522809,0.260406667 86.1062697,1.11162571 91.0513258,3.86436857 C98.3391348,7.92074 103.114247,15.7303876 105.476775,23.9235305 C107.839303,32.1166733 108.080315,40.7781781 108.304022,49.3241876 C108.329978,50.2953686 108.315146,51.3801305 107.66318,52.080121 C107.008124,52.78394 105.954472,52.8400924 105.009584,52.843921 C87.1395281,52.9217686 69.2620562,51.035559 51.776382,47.2274067 C46.7553146,46.1337114 41.7286854,44.8766638 36.6000899,44.7056543 C21.1067753,44.1862448 5.8408764,54.733959 0.394640449,69.7189876 C18.5180674,77.4137781 38.2235169,81.105159 57.8096966,80.475359 C59.0450337,80.4357971 60.3607079,80.3509305 61.3575056,79.5960638 C62.4327865,78.7824924 62.8888539,77.3837876 63.4394719,76.1299305 C66.8445281,68.3777114 75.2861011,64.4425781 83.3173371,62.5270162 C91.349191,60.6114543 99.8581236,59.9682543 107.089697,55.8831686 C110.03127,77.8432162 110.63627,100.13635 108.891101,122.232311 C99.2302584,123.331111 89.5694157,124.429911 79.9079551,125.52935 C83.5416629,113.014388 86.2125618,100.201435 87.8878989,87.2512924 C85.5148652,100.29013 82.7543596,114.12914 73.8214944,123.665473 C70.1649213,127.56934 65.5918876,130.551797 60.6066629,132.284864 C46.9240225,137.041864 29.6577303,130.32655 24.6100899,116.359921 C22.6894157,111.045864 22.5516067,105.248769 22.435427,99.5780162 C22.2852584,92.1965305 22.1344719,84.8150448 21.9836854,77.4341971 C19.9239663,77.633921 17.8642472,77.8342829 15.8039101,78.0340067 C16.0022809,96.5904543 15.6858764,115.152645 14.8546966,133.690588 C20.7186854,131.35133 27.0455393,130.258911 33.3272809,130.502026 C34.5990787,128.194673 33.7580112,125.203283 32.2470562,123.055454 C30.7367191,120.907626 28.6399213,119.270273 27.027,117.202845 C22.2599213,111.093083 22.4589101,102.459016 22.8921124,94.625759 C30.5093034,95.0035114 38.1586292,94.6882924 45.7226742,93.6839305 C47.4975056,100.614921 45.2159326,108.483911 40.0434607,113.266435 C38.7537416,114.459035 37.0036292,115.518273 35.3703146,114.925483 C34.343236,114.552835 33.625764,113.607178 33.0077865,112.681302 C31.2465506,110.040864 29.804809,107.173264 28.7270562,104.166559 C27.9966067,102.128483 27.5461011,99.5371781 29.0650899,98.0338257 C29.8567191,97.2508829 30.9907079,96.99054 32.0659888,96.7716733 C40.6731798,95.0201019 49.4008764,93.9002448 58.1613258,93.4235876 C59.5653708,93.3470162 61.0102022,93.2927781 62.336382,93.77454 C66.3099775,95.2172733 67.3382921,100.42094 67.7399775,104.750416 C67.946382,106.969711 68.1422809,109.27834 67.3945281,111.369378 C66.6467753,113.461054 64.6581236,115.259845 62.5174494,114.97015 C60.5992472,114.710445 59.2341348,112.962064 58.1755393,111.290254 C55.8383483,107.60015 53.949809,103.60695 52.5673933,99.4350829 C52.2021685,98.3324543 51.8740225,97.1124162 52.2837416,96.02574 C52.9548652,94.2473686 55.1406517,93.78794 56.9791348,93.5875781 C67.6812697,92.42114 78.3834045,91.2547019 89.0855393,90.0876257 C80.9375056,84.0321019 73.7522809,76.5963781 67.9055955,68.1696924" id="Stroke-1"></path>
                <path vector-effect="non-scaling-stroke" d="M39.5045843,123.194942 C45.7646966,125.717332 53.153236,125.032656 58.8781798,121.399342" id="Stroke-3"></path>
            </g>
        </g>
    </g>
</svg>

<svg preserveAspectRatio="none" width="112" height="136" viewBox="0 0 112 136" xmlns="http://www.w3.org/2000/svg"><title>Page 1</title><g fill="none" fill-rule="evenodd"><g transform="translate(-362 -549)" stroke="#000"><g transform="translate(363 550)"><path vector-effect="non-scaling-stroke" d="M27.274 40.099c1.456-11.374 7.68-21.892 16.44-28.948C52.477 4.095 63.625.444 74.735.322c5.618-.062 11.372.79 16.317 3.542 7.288 4.057 12.063 11.866 14.426 20.06 2.362 8.193 2.603 16.854 2.827 25.4.026.971.011 2.056-.64 2.756-.656.704-1.71.76-2.654.764a245.325 245.325 0 0 1-53.234-5.617c-5.02-1.093-10.047-2.35-15.176-2.521C21.107 44.186 5.84 54.734.395 69.719c18.123 7.695 37.829 11.386 57.415 10.756 1.235-.04 2.55-.124 3.548-.879 1.075-.814 1.53-2.212 2.081-3.466 3.406-7.752 11.847-11.687 19.878-13.603 8.032-1.916 16.541-2.559 23.773-6.644a314.075 314.075 0 0 1 1.801 66.35l-28.983 3.296a254.433 254.433 0 0 0 7.98-38.278c-2.373 13.04-5.134 26.878-14.067 36.414-3.656 3.904-8.23 6.887-13.214 8.62-13.683 4.757-30.95-1.958-35.997-15.925-1.92-5.314-2.058-11.111-2.175-16.782l-.451-22.144-6.18.6c.198 18.556-.118 37.119-.95 55.657a45.27 45.27 0 0 1 18.473-3.189c1.272-2.307.431-5.299-1.08-7.447-1.51-2.147-3.607-3.785-5.22-5.852-4.767-6.11-4.568-14.744-4.135-22.577a126.09 126.09 0 0 0 22.83-.942c1.776 6.93-.506 14.8-5.679 19.582-1.29 1.193-3.04 2.252-4.673 1.66-1.027-.373-1.744-1.319-2.362-2.245a39.201 39.201 0 0 1-4.28-8.514c-.731-2.039-1.182-4.63.337-6.133.792-.783 1.926-1.043 3.001-1.262a179.926 179.926 0 0 1 26.095-3.348c1.404-.077 2.85-.131 4.175.35 3.974 1.443 5.002 6.647 5.404 10.976.206 2.22.402 4.528-.345 6.62-.748 2.091-2.737 3.89-4.878 3.6-1.918-.26-3.283-2.008-4.341-3.68a53.827 53.827 0 0 1-5.609-11.855c-.365-1.103-.693-2.323-.283-3.41.67-1.778 2.857-2.237 4.695-2.437l32.107-3.5c-8.148-6.056-15.334-13.492-21.18-21.918m-28.401 55.025c6.26 2.522 13.648 1.838 19.373-1.796"/></g></g></g></svg>
